X: 1743
T: Apples In Winter
R: jig
M: 6/8
K: Bdorian
fBB aBB|fec cBc|ABA cAc|efg ~a3|
fBB aBB|fec cBc|Ace ~a3|1 fec Bce:|2 fec B2A||
|:Bbb baf|abb baf|~a3 aec|Ace ~a3|
fbb fbb|eaa eaa|fec ~a3|1 fec B2A:|2 fec Bce||

